X:1
T:Title
%%score { ( 1 3 5 ) | ( 2 4 ) }
L:1/8
Q:1/4=162
M:3/4
K:D
V:1 treble nm="Grand Piano"
V:3 treble 
V:5 treble 
V:2 bass 
V:4 bass 
V:1
 [DF]2 [A,DF]2 [A,DF]2 | [DF]2 [CE]2 [DF]2 | [CG]4 z2 | [CG]4 z2 | [EG]2 [A,CEG]2 [A,CEG]2 | %5
w: Chas.~H.~Gabriel * *|||||
 [EG]2 [DF]2 [A,CE]2 | [DA]4 z2 | [FA]4 z2 | F2 F2 F2 | F2 E2 F2 | G4 z2 | [CG]6 | %12
w: |||||||
 [B,D^G]2 [B,DG]2 [B,DG]2 | [CA]4 z2 | [Ec]4 [DAB]2 |[M:2/4] [CA]4 |[M:1/4] A2 |[M:3/4] [Fd]4 z2 | %18
w: ||||||
 [DF]4 z2 | [Ac]4 z2 | E4 z2 | [EG]4 z2 | [Gc]4 [GB]2 | [GB]4 z2 | [FA]4 z2 | F2 F2 F2 | G4 z2 | %27
w: |||||||||
 z6 | A6 | [DGB]2 [DGB]2 [D=FB]2 | [DFA]4 [^G,D]2 | [A,DF]4[K:bass] [G,CE]2 | [F,D]4 z2 |] %33
w: ||||||
V:2
 D,2 F,2 F,2 | D,2 G,2 F,2 | E,2 G,2 G,2 | A,,2 G,2 G,2 | A,,2 G,2 G,2 | A,,2 A,2 G,2 | %6
 F,2 F,2 E,2 | D,2 F,2 F,2 | [D,D]2 [F,A,D]2 [F,A,D]2 | [D,D]2 [G,A,]2 [F,A,D]2 | C2- [G,C]2 G,2 | %11
 E,2 A,2 A,2 | =F,2 F,2 F,2 | F,2 F,2 [E,A,D]2 | [E,A,]2 F,2 ^G,2 |[M:2/4] A,4 |[M:1/4] G2 | %17
[M:3/4] D,2 F,2 F,2 | D,2 F,2 F,2 | G,2 B,2[K:treble] [B,DG]2 | G,2[K:bass] B,2 B,2 | %21
 A,,2 G,2 G,2 | A,,2 B,,2 C,2 | D,2 F,2 F,2 | D,2 [F,A,]2 [F,A,]2 | [D,A,D]2 [D,A,D]2 [D,A,D]2 | %26
 C2- [E,C-]2 [E,C]2 | =F,2 F,2 [F,B,]2 | [F,A,]2 F,2 F,2 | G,2 G,2 ^G,2 | A,2 A,2 B,,2 | %31
 A,,2 B,,2 C,2 | D,4 z2 |] %33
V:3
 x6 | x6 | z2 A,2 [A,CG]2 | z2 A,2 A,2 | x6 | x6 | z2 A,2 [A,GA]2 | z2 A,2 A,2 | x6 | x6 | %10
 z2 A,2 [A,CG]2 | x6 | x6 | A,2 A,2 B2 | x6 |[M:2/4] x4 |[M:1/4] x2 |[M:3/4] z2 [A,D]2 [A,DFA]2 | %18
 z2 A,2 [A,DFA]2 | z2 D2 B2 | z2 D2 [DF]2 | z2 [A,C]2 [A,CFA]2 | x6 | z2 [A,D]2 [A,DFA]2 | %24
 z2 D2 D2 | x6 | z2 A,2 [A,G]2 | [D-^G]4 D2- | D6 | x6 | x6 | x4[K:bass] x2 | x6 |] %33
V:4
 x6 | x6 | x6 | x6 | x6 | x6 | x6 | x6 | x6 | x6 | E,2 z2 z2 | x6 | x6 | x6 | x6 |[M:2/4] x4 | %16
[M:1/4] x2 |[M:3/4] x6 | x6 | x4[K:treble] x2 | x2[K:bass] x4 | x6 | x6 | x6 | x6 | x6 | %26
 [E,A,]2 z2 z2 | x6 | x6 | x6 | x6 | x6 | x6 |] %33
V:5
 x6 | x6 | x6 | x6 | x6 | x6 | x6 | x6 | x6 | x6 | x6 | x6 | x6 | x6 | x6 |[M:2/4] x4 |[M:1/4] x2 | %17
[M:3/4] x6 | x6 | x6 | x6 | x6 | x6 | x6 | x6 | x6 | x6 | B,2 B,2 ^G2 | z2 A,2 A,2 | x6 | x6 | %31
 x4[K:bass] x2 | x6 |] %33

